X:1
T:Netten er dyb
T:Natten er dyb
T:C. E. F. Weyse
T:Kanon for tre stemmer
C:C. E. F. Weyse
%%score [ 1 2 3 ]
L:1/8
M:3/4
K:Ab
V:1 treble nm="I"
V:2 treble nm="II"
V:3 treble nm="III"
V:1
 A,2 C2 E2 | A4 A2 | B4 (AB) | c2 B2 z2 | A2 E2 =E2 | (FC) (DE) (F=D) | E4 E2 | A,4 z2 :| %8
w: Nat- ten er|dyb, og|gyld- ne _|stjer- ner|sei- ler nu|lang- * somt _ på _|him- lens|hav.|
V:2
 E2 A2 B2 | c e =d e c A | E =D E _D C B, | A,2 E2 z2 | c2 B2 c2 | A2 B2 B2 | c4 B2 | A2 A2 z2 :| %8
w: Dei- li- ge|natt- ter- ga- le- tril- ler|ly- der i de dun- kle|sko- ve.|strøm- mer i-|mot dig som|klukk av|kil- der.|
V:3
 C2 E2 G2 | A c _c =c A2 | A2 (GF) (EG) | A2 G2 z2 | A2 G2 G2 | A2 A2 A2 | A4 G2 | A4 z2 :| %8
w: Sti- ger som|leng- sel i ditt bryst;|du kan _ ei _|so- ve.|Men alt er|tyst i den|tau- se|kveld.|

